X:609
T: "Der Alpjaeger"
N: Z1289
O: Europa, Mitteleuropa, Schweiz
R: Jaeger - Lied
M: 2/4
L: 1/16
K: Bb
F2 | B3cd2e2 | d2f2F2
f2 | c2f2F2A2 | B6
F2 | B3cd2e2 | d2f2F2
f2 | c2f2F2A2 | B4z2
F2 | c3BA2G2 | F2G2A2
B2 | c2A2c2A2 | c4z2
F2 | B3cd2e2 | d2f2F2
f2 | c2f2F2f2 | B4z2

@@@ Tune index: 10367
